icon-themes/sifr_svg/cmd/lc_pararighttoleft.svg

<svg viewBox="0 0 24 24" xmlns="http://www.w3.org/2000/svg"><path d="m13 1v14h2 4c2.209139 0 4-1.790861 4-4s-1.790861-4-4-4h-4v-6zm-10 4v2h6v2h-5c-1.6568542 0-3 1.343146-3 3 0 1.124571.625368 2.093783 1.5410156 2.607422l1.6074219-1.607422h-.1484375c-.5522847 0-1-.447715-1-1s.4477153-1 1-1h5v2h-1v1c0 .338033-.0859213.684641-.2617188 1h1.2617188 2v-8c0-1.10457-.89543-2-2-2zm12 4h4c1.104569 0 2 .8954305 2 2 0 1.104569-.895431 2-2 2h-4zm-9 4c-.26531.00003-.53058.09311-.71875.28125l-4 4-.28125.28125v.875l.28125.28125 4 4c.18818.18821.45346.28125.71875.28125h1v-1c.00004-.26531-.09314-.53057-.28125-.71875l-2.28125-2.28125h18.5625v-2h-18.5625l2.28125-2.28125c.18815-.18817.28125-.45345.28125-.71875v-1z" fill="#555753"/></svg>

<svg xmlns="http://www.w3.org/2000/svg" viewBox="0 0 24 24">
  <path
     style="fill:#555753"
     d="M 13 1 L 13 15 L 15 15 L 19 15 C 21.209139 15 23 13.209139 23 11 C 23 8.790861 21.209139 7 19 7 L 15 7 L 15 1 L 13 1 z M 3 5 L 3 7 L 9 7 L 9 9 L 4 9 C 2.3431458 9 1 10.343146 1 12 C 1 13.124571 1.625368 14.093783 2.5410156 14.607422 L 4.1484375 13 L 4 13 C 3.4477153 13 3 12.552285 3 12 C 3 11.447715 3.4477153 11 4 11 L 9 11 L 9 13 L 8 13 L 8 14 C 8 14.338033 7.9140787 14.684641 7.7382812 15 L 9 15 L 11 15 L 11 7 C 11 5.89543 10.10457 5 9 5 L 3 5 z M 15 9 L 19 9 C 20.104569 9 21 9.8954305 21 11 C 21 12.104569 20.104569 13 19 13 L 15 13 L 15 9 z M 6 13 C 5.73469 13.00003 5.46942 13.09311 5.28125 13.28125 L 1.28125 17.28125 L 1 17.5625 L 1 18.4375 L 1.28125 18.71875 L 5.28125 22.71875 C 5.46943 22.90696 5.73471 23 6 23 L 7 23 L 7 22 C 7.00004 21.73469 6.90686 21.46943 6.71875 21.28125 L 4.4375 19 L 23 19 L 23 17 L 4.4375 17 L 6.71875 14.71875 C 6.9069 14.53058 7 14.2653 7 14 L 7 13 L 6 13 z "
     />
</svg>
